X:1
T:He Always Comes That Way
T:He Always Comes That Way
T:John R. Bryant
T:John R. Bryant, 1904
T:Public Domain Courtesy of the Cyber Hymnal™
T:Public Domain Courtesy of the Cyber Hymnal™
C:John R. Bryant
Z:Public Domain
Z:Courtesy of the Cyber Hymnal™
%%score ( 1 2 ) ( 3 4 )
L:1/8
Q:1/4=90
M:4/4
K:Bb
V:1 treble 
V:2 treble 
V:3 bass 
V:4 bass 
V:1
 [DF]2 | [DF][CE] [B,D]>[CE] [DF] [DB]2 [Fd] | [Gc][GB] [GB]>[EG] [DF]3 [DF] | %3
w: 1.~O|take some pre- cious pro- mise And|rest thy soul there- in, Wait|
w: 2.~Each|pro- mise is most pre- cious, And|cheer- ing to the soul, For|
w: 3.~When|wea- ry of earth’s tri- als, When|sor- rows great op- press, Go|
 [EG][EA][EB][Ec] [Fd]>[Ec] [DB][Fd] | [Fc]6 [Fc]2 | [Fd][Ec] [DB]>[Fd] [Ec] [DB]2 [Fd] | %6
w: for thy Lord to meet thee there to-|day; For|He His word hath giv- en Which|
w: Je- sus is the glo- ry of its|lay; What-|e’er He says He’s a- ble— E’en|
w: find the bless- èd Lord with- out de-|lay; He’s|pro- mised to re- lieve thee Of|
 [Gc][GB] [GB]>[EG] [DF]2 [Ge]2 | [Fd][Fd] [Fd]>[DB] [Ec]2 [Ec]2 | [DB]6 ||"^Refrain" [DF]2 | %10
w: ne’er hath brok- en been, He|al- ways comes a- long that|way.||
w: waves and winds con- trol, He|al- ways comes a- long that|way.|He|
w: bur- dens and dis- tress, He|al- ways comes a- long that|way.||
 [Fd][Fd] [Fd]>[=E^c] [Fd]2 F2 | c6 [EF]2 | [EA][EA] [EA]>[EB] [Ec]2 [EF]2 | B6 [FB]2 | %14
w: ||||
w: al- ways comes a- long that|way; He|al- ways comes a- long that|way; Come|
w: ||||
 [EB][EA] [EG]>[E^F] [EG] [EB]2 [EG] | [EG][DF] [DF]>[C=E] [DF]2 [G_e]2 | %16
w: ||
w: rest up- on His pro- mise, Ne’er|doubt what it may say, He|
w: ||
 [Fd][Fd] [Fd]>[DB] [Ec]2 [Ec]2 | B6 |] %18
w: ||
w: al- ways comes a- long that|way.|
w: ||
V:2
 x2 | x8 | x8 | x8 | x8 | x8 | x8 | x8 | x6 || x2 | x6 F2 | (E>EEE E2) x2 | x8 | (DD^CC D2) x2 | %14
 x8 | x8 | x8 | (D>EFG F2) |] %18
V:3
 [B,,B,]2 | [B,,B,][B,,F,] [B,,F,]>[B,,F,] [B,,B,] [B,,B,]2 [B,,B,] | %2
w: ~|~ ~ ~ ~ ~ ~ ~|
 [E,B,][E,B,] [E,B,]>[E,B,] [B,,B,]3 [B,,B,] | %3
w: ~ ~ ~ ~ ~ ~|
 [E,B,][E,B,][E,G,][E,G,] [B,,B,]>[C,A,] [D,B,][B,,B,] | [F,A,]6 [F,A,]2 | %5
w: ~ ~ ~ ~ ~ ~ ~ ~|~ ~|
 [B,,B,][B,,B,] [B,,B,]>[B,,B,] [B,,B,] [B,,B,]2 [B,,B,] | %6
w: ~ ~ ~ ~ ~ ~ ~|
 [E,B,][E,B,] [E,B,]>[E,B,] [B,,B,]2 [E,B,]2 | [F,B,][F,B,] [F,B,]>[F,B,] [F,A,]2 [F,A,]2 | %8
w: ~ ~ ~ ~ ~ ~|~ ~ ~ ~ ~ ~|
 [B,,B,]6 || [B,,B,]2 | [B,,B,][B,,B,] [B,,B,]>[B,,B,] [B,,B,]2 [F,A,]2 | A,>A, A,A, A,2 [F,A,]2 | %12
w: ~|~|~ ~ ~ ~ ~ Yes,|Je- sus comes that way, ~|
 [F,C][F,C] [F,C]>[F,B,] [F,A,]2 [F,A,]2 | B,F,=E,E, F,2 [D,B,]2 | %14
w: ~ ~ ~ ~ ~ Yes,|Je- sus comes that way, ~|
 [E,G,][E,G,] [E,B,]>[E,B,] [E,B,] [E,G,]2 [E,B,] | %15
w: ~ ~ ~ ~ ~ ~ ~|
 [B,,B,][B,,B,] [B,,B,]>[B,,B,] [B,,B,]2 [E,B,]2 | [F,B,][F,B,] [F,B,]>[F,B,] [F,A,]2 [F,A,]2 | %17
w: ~ ~ ~ ~ ~ ~|~ ~ ~ ~ ~ Yes,|
 B,>C DE D2 |] %18
w: Je- sus comes that way.|
V:4
 x2 | x8 | x8 | x8 | x8 | x8 | x8 | x8 | x6 || x2 | x8 | F,6 x2 | x8 | B,,4 x4 | x8 | x8 | x8 | %17
 B,,6 |] %18

